Assets/pieces/Defensor_Black.svg

<svg xmlns="http://www.w3.org/2000/svg" viewBox="0 0 67.7 103.02"><defs><style>.cls-1{fill:#fff;stroke:#000;}</style></defs><title>Defensor_Black</title><g id="Слой_2" data-name="Слой 2"><g id="Слой_1-2" data-name="Слой 1"><path d="M33.07,102.52C27.490000000000002,101.71,21.92,101.45,16.67,100.02C10.82,98.42,4.45,96.69,2.9,89.39C1.22,81.53,4.19,75.17,9.61,69.55C11.61,67.48,13.879999999999999,64.96,14.329999999999998,62.349999999999994C14.719999999999999,60.129999999999995,13.389999999999999,56.279999999999994,11.589999999999998,55.23C2.59,49.94,0.86,41.28,0.51,32.26C0.35,28.31,2.21,24.199999999999996,3.5700000000000003,20.259999999999998A5.81,5.81,0,0,1,6.94,17.019999999999996C11,15.89,12.3,13.48,12.3,9.37C12.3,7.579999999999999,13.91,4.81,15.47,4.169999999999999C27.47,-0.7300000000000013,39.7,-0.620000000000001,51.86,3.889999999999999C54.86,5.019999999999999,56.33,7.119999999999999,55.86,10.439999999999998S56.62,15.799999999999997,60.23,16.979999999999997C66.00999999999999,18.869999999999997,65.92999999999999,24.749999999999996,66.81,29.379999999999995C68.39,37.67999999999999,65.11,45.029999999999994,60.7,51.89A6.46,6.46,0,0,1,58.59,53.89C51.42,58.07,50.800000000000004,63.39,57.07,68.99A21.09,21.09,0,0,1,64.17,85C64.33,93.16,59.59,98.13,49.81,100.14C44.29,101.26,38.63,101.74,33.07,102.52ZM26.55,41.45C25.8,44.53,25.64,46.260000000000005,24.97,47.77C22.02,54.440000000000005,18.97,61.06,15.879999999999999,67.7C14.43,70.84,14.79,73.43,17.88,75.48C25.66,80.72,42.28,80.83,49.95,75.65C52.6,73.85000000000001,53.730000000000004,71.9,52.050000000000004,68.56C48.78,62.03,45.85,55.33,42.900000000000006,48.650000000000006A45.47,45.47,0,0,1,41.17,43L42.32,42.11C46.21,44.16,50,46.52,54,48.19C55.48,48.8,58.59,48.419999999999995,59.31,47.36C62.88,42.15,64.63,36.269999999999996,62.980000000000004,29.88C60.980000000000004,22.02,60.36000000000001,21.82,53.11000000000001,25.229999999999997C49.67000000000001,26.849999999999998,46.11000000000001,28.229999999999997,42.63000000000001,29.729999999999997L41.63000000000001,28.509999999999998C42.16000000000001,27.049999999999997,42.56000000000001,25.509999999999998,43.23000000000001,24.13C45.110000000000014,20.24,46.96000000000001,16.33,49.08000000000001,12.579999999999998C51.32,8.65,50.71,6.22,46,5.81C39.58,5.26,33.11,4.279999999999999,26.74,4.6499999999999995C16.45,5.26,15.8,6.89,20.25,16C22.3,20.19,24.25,24.42,26.25,28.64L25.25,29.64A29.66,29.66,0,0,1,21.25,28.48C17.91,27,14.57,25.48,11.35,23.78C8.42,22.220000000000002,6.88,22.93,5.75,26.04A23.54,23.54,0,0,0,7.22,46.17C8.89,49.24,10.73,50.17,13.989999999999998,48.17C17.57,45.91,21.44,44.14,26.55,41.45ZM10.7,73.72C3.7699999999999996,80.64,2.33,92.72,14.7,96.25A65.87,65.87,0,0,0,51.56999999999999,96.32C62.56999999999999,93.21,62.129999999999995,84.8,59.099999999999994,76.91C58.03999999999999,74.16,56.769999999999996,73.39999999999999,54.099999999999994,75.91A22.33,22.33,0,0,1,45.23,81.03999999999999C32.67,84.61,20.9,83.28,10.7,73.72ZM56.45,20.119999999999997L51.34,15.489999999999998L47.51,23L48.419999999999995,23.81ZM16.68,15.86L11,20.14L19,23.46L19.71,22.46ZM17.73,56L20.45,49.57L19.5,48.84L14.23,51.6ZM49.91,56.35L53.25,51.35L48.25,48.82L47.32,49.73Z" fill="#fff" stroke="#000" /><path d="M26.55,41.45C21.44,44.14,17.55,45.910000000000004,13.99,48.14C10.73,50.14,8.89,49.24,7.220000000000001,46.14A23.54,23.54,0,0,1,5.75,26C6.88,22.89,8.42,22.18,11.35,23.740000000000002C14.57,25.450000000000003,17.91,26.96,21.25,28.44A29.66,29.66,0,0,0,25.25,29.6L26.25,28.6C24.25,24.380000000000003,22.25,20.150000000000002,20.25,15.96C15.8,6.890000000000001,16.45,5.260000000000002,26.69,4.65C33.06,4.28,39.53,5.260000000000001,45.95,5.8100000000000005C50.71,6.220000000000001,51.32,8.65,49.080000000000005,12.58C46.96000000000001,16.33,45.080000000000005,20.240000000000002,43.230000000000004,24.130000000000003C42.56,25.520000000000003,42.160000000000004,27.050000000000004,41.63,28.51L42.63,29.73C46.13,28.240000000000002,49.63,26.85,53.11,25.23C60.4,21.82,61,22,63,29.88C64.65,36.269999999999996,62.9,42.15,59.33,47.36C58.61,48.42,55.5,48.8,54.019999999999996,48.19C49.959999999999994,46.519999999999996,46.19,44.19,42.3,42.07L41.17,43A45.47,45.47,0,0,0,42.86,48.69C45.86,55.37,48.74,62.07,52.01,68.6C53.69,71.94,52.559999999999995,73.89,49.91,75.69C42.239999999999995,80.87,25.619999999999997,80.75999999999999,17.839999999999996,75.52C14.789999999999996,73.52,14.429999999999996,70.88,15.839999999999996,67.74C18.839999999999996,61.099999999999994,21.979999999999997,54.48,24.929999999999996,47.809999999999995C25.64,46.26,25.8,44.53,26.55,41.45Z"/><path d="M10.7,73.72C20.9,83.28,32.7,84.61,45.230000000000004,81.08A22.33,22.33,0,0,0,54.1,76C56.81,73.45,58.1,74.21,59.1,77C62.1,84.89,62.58,93.3,51.57,96.41A65.87,65.87,0,0,1,14.700000000000003,96.34C2.33,92.71,3.77,80.64,10.7,73.72Z"/><path d="M56.45,20.12L48.45,23.76L47.51,23L51.339999999999996,15.54Z"/><path d="M16.68,15.86L19.68,22.439999999999998L18.97,23.439999999999998L10.969999999999999,20.119999999999997Z"/><path d="M17.73,56L14.23,51.6L19.5,48.84L20.45,49.57Z"/><path d="M49.91,56.39L47.3,49.82L48.23,48.910000000000004L53.23,51.440000000000005Z"/></g></g></svg>

<svg xmlns="http://www.w3.org/2000/svg" viewBox="0 0 67.7 103.02"><defs><style>.cls-1{fill:#fff;stroke:#000;}</style></defs><title>Defensor_Black</title><g id="Слой_2" data-name="Слой 2"><g id="Слой_1-2" data-name="Слой 1"><path class="cls-1" d="M33.07,102.52c-5.58-.81-11.15-1.07-16.4-2.5C10.82,98.42,4.45,96.69,2.9,89.39,1.22,81.53,4.19,75.17,9.61,69.55c2-2.07,4.27-4.59,4.72-7.2.39-2.22-.94-6.07-2.74-7.12C2.59,49.94.86,41.28.51,32.26c-.16-3.95,1.7-8.06,3.06-12a5.81,5.81,0,0,1,3.37-3.24C11,15.89,12.3,13.48,12.3,9.37c0-1.79,1.61-4.56,3.17-5.2,12-4.9,24.23-4.79,36.39-.28,3,1.13,4.47,3.23,4,6.55s.76,5.36,4.37,6.54c5.78,1.89,5.7,7.77,6.58,12.4,1.58,8.3-1.7,15.65-6.11,22.51a6.46,6.46,0,0,1-2.11,2c-7.17,4.18-7.79,9.5-1.52,15.1A21.09,21.09,0,0,1,64.17,85c.16,8.16-4.58,13.13-14.36,15.14C44.29,101.26,38.63,101.74,33.07,102.52ZM26.55,41.45c-.75,3.08-.91,4.81-1.58,6.32-2.95,6.67-6,13.29-9.09,19.93-1.45,3.14-1.09,5.73,2,7.78,7.78,5.24,24.4,5.35,32.07.17,2.65-1.8,3.78-3.75,2.1-7.09-3.27-6.53-6.2-13.23-9.15-19.91A45.47,45.47,0,0,1,41.17,43l1.15-.89C46.21,44.16,50,46.52,54,48.19c1.48.61,4.59.23,5.31-.83,3.57-5.21,5.32-11.09,3.67-17.48-2-7.86-2.62-8.06-9.87-4.65-3.44,1.62-7,3-10.48,4.5l-1-1.22c.53-1.46.93-3,1.6-4.38,1.88-3.89,3.73-7.8,5.85-11.55C51.32,8.65,50.71,6.22,46,5.81c-6.42-.55-12.89-1.53-19.26-1.16C16.45,5.26,15.8,6.89,20.25,16c2.05,4.19,4,8.42,6,12.64l-1,1a29.66,29.66,0,0,1-4-1.16c-3.34-1.48-6.68-3-9.9-4.7-2.93-1.56-4.47-.85-5.6,2.26A23.54,23.54,0,0,0,7.22,46.17c1.67,3.07,3.51,4,6.77,2C17.57,45.91,21.44,44.14,26.55,41.45ZM10.7,73.72c-6.93,6.92-8.37,19,4,22.53a65.87,65.87,0,0,0,36.87.07c11-3.11,10.56-11.52,7.53-19.41-1.06-2.75-2.33-3.51-5-1a22.33,22.33,0,0,1-8.87,5.13C32.67,84.61,20.9,83.28,10.7,73.72Zm45.75-53.6-5.11-4.63L47.51,23l.91.81ZM16.68,15.86,11,20.14l8,3.32.71-1ZM17.73,56l2.72-6.43-.95-.73-5.27,2.76Zm32.18.35,3.34-5-5-2.53-.93.91Z"/><path d="M26.55,41.45c-5.11,2.69-9,4.46-12.56,6.69-3.26,2-5.1,1.1-6.77-2A23.54,23.54,0,0,1,5.75,26c1.13-3.11,2.67-3.82,5.6-2.26,3.22,1.71,6.56,3.22,9.9,4.7a29.66,29.66,0,0,0,4,1.16l1-1c-2-4.22-4-8.45-6-12.64-4.45-9.07-3.8-10.7,6.44-11.31,6.37-.37,12.84.61,19.26,1.16,4.76.41,5.37,2.84,3.13,6.77-2.12,3.75-4,7.66-5.85,11.55-.67,1.39-1.07,2.92-1.6,4.38l1,1.22c3.5-1.49,7-2.88,10.48-4.5C60.4,21.82,61,22,63,29.88c1.65,6.39-.1,12.27-3.67,17.48-.72,1.06-3.83,1.44-5.31.83-4.06-1.67-7.83-4-11.72-6.12L41.17,43a45.47,45.47,0,0,0,1.69,5.69c3,6.68,5.88,13.38,9.15,19.91,1.68,3.34.55,5.29-2.1,7.09-7.67,5.18-24.29,5.07-32.07-.17-3.05-2-3.41-4.64-2-7.78,3-6.64,6.14-13.26,9.09-19.93C25.64,46.26,25.8,44.53,26.55,41.45Z"/><path d="M10.7,73.72c10.2,9.56,22,10.89,34.53,7.36A22.33,22.33,0,0,0,54.1,76c2.71-2.55,4-1.79,5,1,3,7.89,3.48,16.3-7.53,19.41a65.87,65.87,0,0,1-36.87-.07C2.33,92.71,3.77,80.64,10.7,73.72Z"/><path d="M56.45,20.12l-8,3.64L47.51,23l3.83-7.46Z"/><path d="M16.68,15.86l3,6.58-.71,1-8-3.32Z"/><path d="M17.73,56l-3.5-4.4,5.27-2.76.95.73Z"/><path d="M49.91,56.39,47.3,49.82l.93-.91,5,2.53Z"/></g></g></svg>
